packages/sources/icons/src/vitamix/scales-fill.svg

<svg width="16" height="16" viewBox="0 0 16 16" xmlns="http://www.w3.org/2000/svg"><path d="M8.66656 1.33331V2.18531L11.9999 3.29731L14.4212 2.49065L14.8432 3.75465L12.8219 4.42865L14.8859 10.1033C14.1579 10.8613 13.1332 11.3333 11.9999 11.3333C10.8659 11.3333 9.84189 10.8613 9.11389 10.1033L11.1766 4.42865L8.66656 3.59131V12.6666H11.3332V14H4.66656V12.6666H7.33322V3.59131L4.82122 4.42865L6.88522 10.1033C6.15789 10.8613 5.13322 11.3333 3.99989 11.3333C2.86589 11.3333 1.84189 10.8613 1.11389 10.1033L3.17656 4.42865L1.15656 3.75531L1.57856 2.48998L3.99989 3.29665L7.33322 2.18531V1.33331H8.66656ZM11.9999 6.06865L11.0546 8.66665H12.9446L11.9999 6.06865ZM3.99989 6.06865L3.05456 8.66665H4.94456L3.99989 6.06865Z"/></svg>

<svg width="16" height="16" xmlns="http://www.w3.org/2000/svg"><path d="M8.667 1.333v.852L12 3.297l2.421-.806.422 1.264-2.021.674 2.064 5.674A3.99 3.99 0 0 1 12 11.333a3.99 3.99 0 0 1-2.886-1.23l2.063-5.674-2.51-.838v9.076h2.666V14H4.667v-1.333h2.666V3.59l-2.512.838 2.064 5.674A3.988 3.988 0 0 1 4 11.333a3.99 3.99 0 0 1-2.886-1.23L3.177 4.43l-2.02-.674.422-1.265 2.42.807 3.334-1.112v-.852h1.334ZM12 6.07l-.945 2.598h1.89L12 6.069Zm-8 0-.945 2.598h1.89L4 6.069Z"/></svg>
